X: 116004
Q: "Reel."
M: C
L: 1/8
K: A
|:\
a2(ec) acec | a2(ef) =gdB=G |\
a2(ec) acef | =gbeg dgB=G :|
cAAB cAca | cAA=c B=gB=G |\
cAAB caef | =gbeg dgB=G ||\
a2(ec) acec | a2(ef) =gdB=G |\
a2(ec) acef | =gbef gdB=G |]


